svg/fluentui-system-icons/ic_fluent_alert_16_regular.svg

<svg width="16" height="16" viewBox="0 0 16 16" fill="none" xmlns="http://www.w3.org/2000/svg">
<path d="M8.00001 2C5.51473 2 3.50001 4.01472 3.50001 6.5V8.9014L2.5357 11.3145C2.47415 11.4685 2.49299 11.643 2.58601 11.7804C2.67904 11.9177 2.83412 12 3 12H6C6 13.1084 6.89164 14 8 14C9.10836 14 10 13.1084 10 12H13C13.1659 12 13.321 11.9177 13.414 11.7804C13.507 11.643 13.5259 11.4685 13.4643 11.3145L12.5 8.9014V6.5C12.5 4.01472 10.4853 2 8.00001 2ZM9 12C9 12.5561 8.55607 13 8 13C7.44393 13 7 12.5561 7 12H9ZM4.50001 6.5C4.50001 4.567 6.06701 3 8.00001 3C9.933 3 11.5 4.567 11.5 6.5V8.9976C11.5 9.06116 11.5121 9.12413 11.5357 9.18315L12.2617 11H3.73826L4.46431 9.18315C4.48789 9.12413 4.50001 9.06116 4.50001 8.9976V6.5Z" fill="#212121"/>
</svg>

<svg xmlns="http://www.w3.org/2000/svg" width="16" height="16"><path d="M8 2a4.5 4.5 0 0 0-4.5 4.5v2.401l-.964 2.414A.5.5 0 0 0 3 12h3c0 1.108.892 2 2 2s2-.892 2-2h3a.5.5 0 0 0 .464-.685L12.5 8.9V6.5A4.5 4.5 0 0 0 8 2Zm1 10c0 .556-.444 1-1 1s-1-.444-1-1h2ZM4.5 6.5a3.5 3.5 0 1 1 7 0v2.498a.5.5 0 0 0 .036.185L12.262 11H3.738l.726-1.817a.5.5 0 0 0 .036-.185V6.5Z"/></svg>
